static/img/kroki/7a0137bc9bcacfff1ca26d126768aa9c.svg

<?xml version="1.0" encoding="us-ascii" standalone="no"?><svg xmlns="http://www.w3.org/2000/svg" xmlns:xlink="http://www.w3.org/1999/xlink" contentStyleType="text/css" height="573px" preserveAspectRatio="none" style="width:295px;height:573px;" version="1.1" viewBox="0 0 295 573" width="295px" zoomAndPan="magnify"><defs/><g><!--class ai_job--><g id="elem_ai_job"><rect codeLine="23" fill="#3D176E" height="39.7891" id="ai_job" rx="2.5" ry="2.5" style="stroke:#000D19;stroke-width:0.5;" width="91" x="45" y="367.37"/><ellipse cx="60" cy="387.2645" fill="#ADD1B2" rx="11" ry="11" style="stroke:#181818;stroke-width:1.0;"/><path d="M62.9688,392.9052 Q62.3906,393.202 61.75,393.3427 Q61.1094,393.4989 60.4063,393.4989 Q57.9063,393.4989 56.5781,391.8583 Q55.2656,390.202 55.2656,387.077 Q55.2656,383.952 56.5781,382.2958 Q57.9063,380.6395 60.4063,380.6395 Q61.1094,380.6395 61.75,380.7958 Q62.4063,380.952 62.9688,381.2489 L62.9688,383.9677 Q62.3438,383.3895 61.75,383.1239 Q61.1563,382.8427 60.5313,382.8427 Q59.1875,382.8427 58.5,383.9208 Q57.8125,384.9833 57.8125,387.077 Q57.8125,389.1708 58.5,390.2489 Q59.1875,391.3114 60.5313,391.3114 Q61.1563,391.3114 61.75,391.0458 Q62.3438,390.7645 62.9688,390.1864 L62.9688,392.9052 Z " fill="#000000"/><text fill="#D9B8FF" font-family="Helvetica" font-size="17" lengthAdjust="spacing" textLength="49" x="79" y="393.1498">ai_job</text></g><!--class ai_resource--><g id="elem_ai_resource"><rect codeLine="26" fill="#3D176E" height="39.7891" id="ai_resource" rx="2.5" ry="2.5" style="stroke:#000D19;stroke-width:0.5;" width="137" x="10" y="167.79"/><ellipse cx="25" cy="187.6845" fill="#ADD1B2" rx="11" ry="11" style="stroke:#181818;stroke-width:1.0;"/><path d="M27.9688,193.3252 Q27.3906,193.622 26.75,193.7627 Q26.1094,193.9189 25.4063,193.9189 Q22.9063,193.9189 21.5781,192.2783 Q20.2656,190.622 20.2656,187.497 Q20.2656,184.372 21.5781,182.7158 Q22.9063,181.0595 25.4063,181.0595 Q26.1094,181.0595 26.75,181.2158 Q27.4063,181.372 27.9688,181.6689 L27.9688,184.3877 Q27.3438,183.8095 26.75,183.5439 Q26.1563,183.2627 25.5313,183.2627 Q24.1875,183.2627 23.5,184.3408 Q22.8125,185.4033 22.8125,187.497 Q22.8125,189.5908 23.5,190.6689 Q24.1875,191.7314 25.5313,191.7314 Q26.1563,191.7314 26.75,191.4658 Q27.3438,191.1845 27.9688,190.6064 L27.9688,193.3252 Z " fill="#000000"/><text fill="#D9B8FF" font-family="Helvetica" font-size="17" lengthAdjust="spacing" textLength="95" x="44" y="193.5698">ai_resource</text></g><!--class aws_bedrock_evaluation_job--><g id="elem_aws_bedrock_evaluation_job"><rect codeLine="29" fill="#3D176E" height="39.7891" id="aws_bedrock_evaluation_job" rx="2.5" ry="2.5" style="stroke:#000D19;stroke-width:0.5;" width="281" x="7" y="528.16"/><ellipse cx="22" cy="548.0545" fill="#ADD1B2" rx="11" ry="11" style="stroke:#181818;stroke-width:1.0;"/><path d="M24.9688,553.6952 Q24.3906,553.992 23.75,554.1327 Q23.1094,554.2889 22.4063,554.2889 Q19.9063,554.2889 18.5781,552.6483 Q17.2656,550.992 17.2656,547.867 Q17.2656,544.742 18.5781,543.0858 Q19.9063,541.4295 22.4063,541.4295 Q23.1094,541.4295 23.75,541.5858 Q24.4063,541.742 24.9688,542.0389 L24.9688,544.7577 Q24.3438,544.1795 23.75,543.9139 Q23.1563,543.6327 22.5313,543.6327 Q21.1875,543.6327 20.5,544.7108 Q19.8125,545.7733 19.8125,547.867 Q19.8125,549.9608 20.5,551.0389 Q21.1875,552.1014 22.5313,552.1014 Q23.1563,552.1014 23.75,551.8358 Q24.3438,551.5545 24.9688,550.9764 L24.9688,553.6952 Z " fill="#000000"/><text fill="#D9B8FF" font-family="Helvetica" font-size="17" lengthAdjust="spacing" textLength="239" x="41" y="553.9398">aws_bedrock_evaluation_job</text></g><!--class aws_resource--><g id="elem_aws_resource"><rect codeLine="32" fill="#3D176E" height="39.7891" id="aws_resource" rx="2.5" ry="2.5" style="stroke:#000D19;stroke-width:0.5;" width="155" x="128" y="267.58"/><ellipse cx="143" cy="287.4745" fill="#ADD1B2" rx="11" ry="11" style="stroke:#181818;stroke-width:1.0;"/><path d="M145.9688,293.1152 Q145.3906,293.412 144.75,293.5527 Q144.1094,293.7089 143.4063,293.7089 Q140.9063,293.7089 139.5781,292.0683 Q138.2656,290.412 138.2656,287.287 Q138.2656,284.162 139.5781,282.5058 Q140.9063,280.8495 143.4063,280.8495 Q144.1094,280.8495 144.75,281.0058 Q145.4063,281.162 145.9688,281.4589 L145.9688,284.1777 Q145.3438,283.5995 144.75,283.3339 Q144.1563,283.0527 143.5313,283.0527 Q142.1875,283.0527 141.5,284.1308 Q140.8125,285.1933 140.8125,287.287 Q140.8125,289.3808 141.5,290.4589 Q142.1875,291.5214 143.5313,291.5214 Q144.1563,291.5214 144.75,291.2558 Q145.3438,290.9745 145.9688,290.3964 L145.9688,293.1152 Z " fill="#000000"/><text fill="#D9B8FF" font-family="Helvetica" font-size="17" lengthAdjust="spacing" textLength="113" x="162" y="293.3598">aws_resource</text></g><!--class resource--><g id="elem_resource"><rect codeLine="35" fill="#3D176E" height="39.7891" id="resource" rx="2.5" ry="2.5" style="stroke:#000D19;stroke-width:0.5;" width="113" x="85" y="7"/><ellipse cx="100" cy="26.8945" fill="#ADD1B2" rx="11" ry="11" style="stroke:#181818;stroke-width:1.0;"/><path d="M102.9688,32.5352 Q102.3906,32.832 101.75,32.9727 Q101.1094,33.1289 100.4063,33.1289 Q97.9063,33.1289 96.5781,31.4883 Q95.2656,29.832 95.2656,26.707 Q95.2656,23.582 96.5781,21.9258 Q97.9063,20.2695 100.4063,20.2695 Q101.1094,20.2695 101.75,20.4258 Q102.4063,20.582 102.9688,20.8789 L102.9688,23.5977 Q102.3438,23.0195 101.75,22.7539 Q101.1563,22.4727 100.5313,22.4727 Q99.1875,22.4727 98.5,23.5508 Q97.8125,24.6133 97.8125,26.707 Q97.8125,28.8008 98.5,29.8789 Q99.1875,30.9414 100.5313,30.9414 Q101.1563,30.9414 101.75,30.6758 Q102.3438,30.3945 102.9688,29.8164 L102.9688,32.5352 Z " fill="#000000"/><text fill="#D9B8FF" font-family="Helvetica" font-size="17" lengthAdjust="spacing" textLength="71" x="119" y="32.7798">resource</text></g><!--reverse link ai_resource to ai_job--><g id="link_ai_resource_ai_job"><path codeLine="38" d="M80.7641,225.9567 C83.0641,263.7267 87.02,329.05 89.32,366.88 " fill="none" id="ai_resource-backto-ai_job" style="stroke:#FFAF37;stroke-width:2.0;"/><polygon fill="none" points="79.67,207.99,74.7752,226.3214,86.753,225.592,79.67,207.99" style="stroke:#FFAF37;stroke-width:2.0;"/></g><!--reverse link resource to ai_resource--><g id="link_resource_ai_resource"><path codeLine="39" d="M127.2613,63.781 C115.1513,94.301 98.25,136.9 86.13,167.47 " fill="none" id="resource-backto-ai_resource" style="stroke:#FFAF37;stroke-width:2.0;"/><polygon fill="none" points="133.9,47.05,121.6843,61.5681,132.8383,65.9939,133.9,47.05" style="stroke:#FFAF37;stroke-width:2.0;"/></g><!--reverse link ai_job to aws_bedrock_evaluation_job--><g id="link_ai_job_aws_bedrock_evaluation_job"><path codeLine="40" d="M103.4587,424.3625 C114.4087,454.8825 129.63,497.27 140.6,527.83 " fill="none" id="ai_job-backto-aws_bedrock_evaluation_job" style="stroke:#FFAF37;stroke-width:2.0;"/><polygon fill="none" points="97.38,407.42,97.8112,426.3888,109.1062,422.3363,97.38,407.42" style="stroke:#FFAF37;stroke-width:2.0;"/></g><!--reverse link aws_resource to aws_bedrock_evaluation_job--><g id="link_aws_resource_aws_bedrock_evaluation_job"><path codeLine="41" d="M197.3002,325.0535 C186.6002,372.7535 162.64,479.56 151.85,527.66 " fill="none" id="aws_resource-backto-aws_bedrock_evaluation_job" style="stroke:#FFAF37;stroke-width:2.0;"/><polygon fill="none" points="201.24,307.49,191.4457,323.7403,203.1547,326.3668,201.24,307.49" style="stroke:#FFAF37;stroke-width:2.0;"/></g><!--reverse link resource to aws_resource--><g id="link_resource_aws_resource"><path codeLine="42" d="M150.5317,64.3835 C162.3317,112.0935 188.79,218.98 200.7,267.08 " fill="none" id="resource-backto-aws_resource" style="stroke:#FFAF37;stroke-width:2.0;"/><polygon fill="none" points="146.21,46.91,144.7072,65.8241,156.3562,62.9429,146.21,46.91" style="stroke:#FFAF37;stroke-width:2.0;"/></g><!--SRC=[XP3BRi8m44Nt_WfBh96Wg0MaRW2fQZUeAjsZIJm6Dua7ZHqGVVnxeGJgn3osznvxpipIA9HOhFnM5bWao4wupDWLC1Hon4oR2UN4igKrw5w_MJwHzJU1AHGedp5VepSfD8dtfKapYyx9kw0QGvejc4gh3jzx1kjs5LeVK9CSd1jvpoOfFGOoQfWCj6wIpKzRFTNjFs244Ila2kbqEgexR28tHrtT-qJCp2VARdYqANcCDACHVzHLopqHI4QB7lkBZg-WbB4BUHzaRmSdjiYrVBO4HPizhI5tuHZdaP7yTeMJQ2iS3fJkduLVBi4YtPzEWfb_K2A_XFZvJnWTbPnYBTwuUOAAAStck8Qy16_8HeztrBdNzImSyVZTRhSh3H6dnqHKebLnKKRK36xIPyZJn5y0]--></g></svg>

<svg xmlns="http://www.w3.org/2000/svg" width="295" height="573" viewBox="0 0 295 573"><rect width="91" height="39.789" x="45" y="367.37" fill="#3D176E" rx="2.5" ry="2.5" style="stroke:#000d19;stroke-width:.5"/><circle cx="60" cy="387.264" r="11" fill="#ADD1B2" style="stroke:#181818;stroke-width:1"/><path d="M62.969 392.905q-.578.297-1.219.438-.64.156-1.344.156-2.5 0-3.828-1.64-1.312-1.657-1.312-4.782t1.312-4.781q1.328-1.656 3.828-1.656.703 0 1.344.156.656.156 1.219.453v2.719q-.625-.579-1.219-.844-.594-.281-1.219-.281-1.343 0-2.031 1.078-.687 1.062-.687 3.156t.687 3.172q.688 1.062 2.031 1.062.625 0 1.219-.265.594-.281 1.219-.86z"/><text x="79" y="393.15" fill="#D9B8FF" font-family="Helvetica" font-size="17" textLength="49">ai_job</text><rect width="137" height="39.789" x="10" y="167.79" fill="#3D176E" rx="2.5" ry="2.5" style="stroke:#000d19;stroke-width:.5"/><circle cx="25" cy="187.685" r="11" fill="#ADD1B2" style="stroke:#181818;stroke-width:1"/><path d="M27.969 193.325q-.578.297-1.219.438-.64.156-1.344.156-2.5 0-3.828-1.64-1.312-1.657-1.312-4.782t1.312-4.781q1.328-1.656 3.828-1.656.703 0 1.344.156.656.156 1.219.453v2.719q-.625-.578-1.219-.844-.594-.281-1.219-.281-1.343 0-2.031 1.078-.687 1.062-.687 3.156t.687 3.172q.688 1.062 2.031 1.062.625 0 1.219-.265.594-.281 1.219-.86z"/><text x="44" y="193.57" fill="#D9B8FF" font-family="Helvetica" font-size="17" textLength="95">ai_resource</text><rect width="281" height="39.789" x="7" y="528.16" fill="#3D176E" rx="2.5" ry="2.5" style="stroke:#000d19;stroke-width:.5"/><circle cx="22" cy="548.054" r="11" fill="#ADD1B2" style="stroke:#181818;stroke-width:1"/><path d="M24.969 553.695q-.578.297-1.219.438-.64.156-1.344.156-2.5 0-3.828-1.64-1.312-1.657-1.312-4.782t1.312-4.781q1.328-1.657 3.828-1.657.703 0 1.344.157.656.156 1.219.453v2.719q-.625-.579-1.219-.844-.594-.281-1.219-.281-1.343 0-2.031 1.078-.687 1.062-.687 3.156t.687 3.172q.688 1.062 2.031 1.062.625 0 1.219-.265.594-.282 1.219-.86z"/><text x="41" y="553.94" fill="#D9B8FF" font-family="Helvetica" font-size="17" textLength="239">aws_bedrock_evaluation_job</text><rect width="155" height="39.789" x="128" y="267.58" fill="#3D176E" rx="2.5" ry="2.5" style="stroke:#000d19;stroke-width:.5"/><circle cx="143" cy="287.474" r="11" fill="#ADD1B2" style="stroke:#181818;stroke-width:1"/><path d="M145.969 293.115q-.578.297-1.219.438-.64.156-1.344.156-2.5 0-3.828-1.64-1.312-1.657-1.312-4.782t1.312-4.781q1.328-1.656 3.828-1.656.703 0 1.344.156.656.156 1.219.453v2.719q-.625-.579-1.219-.844-.594-.281-1.219-.281-1.344 0-2.031 1.078-.687 1.062-.687 3.156t.687 3.172q.688 1.062 2.031 1.062.625 0 1.219-.265.594-.281 1.219-.86z"/><text x="162" y="293.36" fill="#D9B8FF" font-family="Helvetica" font-size="17" textLength="113">aws_resource</text><rect width="113" height="39.789" x="85" y="7" fill="#3D176E" rx="2.5" ry="2.5" style="stroke:#000d19;stroke-width:.5"/><circle cx="100" cy="26.895" r="11" fill="#ADD1B2" style="stroke:#181818;stroke-width:1"/><path d="M102.969 32.535q-.578.297-1.219.438-.64.156-1.344.156-2.5 0-3.828-1.64-1.312-1.657-1.312-4.782t1.312-4.781q1.328-1.656 3.828-1.656.703 0 1.344.156.656.156 1.219.453v2.719q-.625-.578-1.219-.844-.594-.281-1.219-.281-1.344 0-2.031 1.078-.687 1.062-.687 3.156t.687 3.172q.688 1.062 2.031 1.062.625 0 1.219-.265.594-.281 1.219-.86z"/><text x="119" y="32.78" fill="#D9B8FF" font-family="Helvetica" font-size="17" textLength="71">resource</text><path fill="none" d="M80.764 225.957c2.3 37.77 6.256 103.093 8.556 140.923m-9.65-158.89-4.895 18.331 11.978-.729zm47.591-144.209C115.151 94.301 98.25 136.9 86.13 167.47M133.9 47.05l-12.216 14.518 11.154 4.426zm-30.441 377.313c10.95 30.52 26.171 72.907 37.141 103.467M97.38 407.42l.431 18.969 11.295-4.053zm99.92-82.366L151.85 527.66m49.39-220.17-9.794 16.25 11.709 2.627zM150.532 64.384c11.8 47.71 38.258 154.596 50.168 202.696M146.21 46.91l-1.503 18.914 11.65-2.881z" style="stroke:#ffaf37;stroke-width:2"/></svg>
